X: 1
T: The Rising of the Moon
C: John Keegan Casey (1846-1870)
M: C
L: 1/4
Z: 2006 John Chambers <jc@trillian.mit.edu>
K: Am
[| "Am"A>B cd | ea "C"g<e | "Am"cc "G"BB | "F"AA "Em"G2 |
| "Am"A>B cd | ea "C"g<e | c>e "Em"ed | "G"B>A "Am"A2 |
| "Am"ea ag/a/ | "G"ba "Em"g<e | "Am"aa "C"g<e | "F"ga "Em"g2 |
| "Am"A>B cd | ea "C"g<e | c>e "Em"ed | "G"B>A "Am"A2 |]
%
